svgs/duotone/barcode.svg

<svg xmlns="http://www.w3.org/2000/svg" viewBox="0 0 512 512"><!--! Font Awesome Pro 6.4.2 by @fontawesome - https://fontawesome.com License - https://fontawesome.com/license (Commercial License) Copyright 2023 Fonticons, Inc. --><defs><style>.fa-secondary{opacity:.4}</style></defs><path class="fa-primary" d=""/><path class="fa-secondary" d="M24 32C10.7 32 0 42.7 0 56V456c0 13.3 10.7 24 24 24H40c13.3 0 24-10.7 24-24V56c0-13.3-10.7-24-24-24H24zm88 0c-8.8 0-16 7.2-16 16V464c0 8.8 7.2 16 16 16s16-7.2 16-16V48c0-8.8-7.2-16-16-16zm72 0c-13.3 0-24 10.7-24 24V456c0 13.3 10.7 24 24 24h16c13.3 0 24-10.7 24-24V56c0-13.3-10.7-24-24-24H184zm96 0c-13.3 0-24 10.7-24 24V456c0 13.3 10.7 24 24 24h16c13.3 0 24-10.7 24-24V56c0-13.3-10.7-24-24-24H280zM448 56V456c0 13.3 10.7 24 24 24h16c13.3 0 24-10.7 24-24V56c0-13.3-10.7-24-24-24H472c-13.3 0-24 10.7-24 24zm-64-8V464c0 8.8 7.2 16 16 16s16-7.2 16-16V48c0-8.8-7.2-16-16-16s-16 7.2-16 16z"/></svg>

<svg xmlns="http://www.w3.org/2000/svg" viewBox="0 0 512 512"><!--! Font Awesome Pro 6.0.0-alpha3 by @fontawesome - https://fontawesome.com License - https://fontawesome.com/license (Commercial License) --><defs><style>.fa-secondary{opacity:.4}</style></defs><path class="fa-primary" d="M200 32H184C170.8 32 160 42.8 160 55.1v400C160 469.2 170.8 480 183.1 480H200C213.2 480 224 469.2 224 456V56C224 42.8 213.2 32 200 32zM111.1 32c-8.8 0-15.1 7.2-15.1 15.1v416C95.1 472.8 103.2 480 111.1 480s16-7.2 16-15.1V47.1C127.1 39.2 120.8 32 111.1 32zM40 32H24C10.8 32 0 42.8 0 55.1v400C0 469.2 10.8 480 23.1 480H40C53.2 480 64 469.2 64 456V56C64 42.8 53.2 32 40 32zM488 32h-16C458.8 32 448 42.8 448 56v400c0 13.2 10.8 24 24 24h16c13.2 0 24-10.8 24-24v-400C512 42.8 501.2 32 488 32zM400 32C391.2 32 384 39.2 384 48v416c0 8.8 7.2 16 16 16s16-7.2 16-16v-416C416 39.2 408.8 32 400 32zM296 32h-16C266.8 32 256 42.8 256 56v400c0 13.2 10.8 24 24 24h16c13.2 0 24-10.8 24-24v-400C320 42.8 309.2 32 296 32z"/></svg>
